lib/flags/lr-liberia.svg

<svg xmlns="http://www.w3.org/2000/svg" fill="none" aria-hidden="true" viewBox="0 0 42 30"><g id="Country=LR - Liberia, Size=sm (36x24)" filter="url(#filter0_dd_91_26712)"><g clip-path="url(#clip0_91_26712)"><g id="flag"><mask id="mask0_91_26712" width="36" height="24" x="3" y="2" maskUnits="userSpaceOnUse" style="mask-type:alpha"><rect id="mask" width="36" height="24" x="3" y="2" fill="white"/></mask><g mask="url(#mask0_91_26712)"><g id="contents"><path id="background" fill="#F7FCFF" fill-rule="evenodd" d="M3 2H39V26H3V2Z" clip-rule="evenodd"/><g id="mark"><rect id="lines" width="36" height="3" x="3.03027" y="7.5" fill="#E31D1C"/><path id="lines_2" fill="#E31D1C" fill-rule="evenodd" d="M3 2H39V5H3V2Z" clip-rule="evenodd"/><rect id="lines_3" width="36" height="3" x="2.93359" y="13" fill="#E31D1C"/><rect id="lines_4" width="36" height="3" x="3.12549" y="18.3999" fill="#E31D1C"/><rect id="lines_5" width="36" height="3" x="3.11426" y="23.5" fill="#E31D1C"/><path id="square" fill="#3D58DB" fill-rule="evenodd" d="M3 2H21V16H3V2Z" clip-rule="evenodd"/><path id="Star 5" fill="#F7FCFF" fill-rule="evenodd" d="M12.149 11.2131L8.86249 13.2394L9.91266 9.7688L7.5 7.55178L10.7669 7.43191L12.149 4L13.5312 7.43191H16.7925L14.3854 9.7688L15.5909 13.0346L12.149 11.2131Z" clip-rule="evenodd"/></g></g></g></g></g></g><defs><filter id="filter0_dd_91_26712" width="42" height="30" x="0" y="0" color-interpolation-filters="sRGB" filterUnits="userSpaceOnUse"><feFlood flood-opacity="0" result="BackgroundImageFix"/><feColorMatrix in="SourceAlpha" result="hardAlpha" values="0 0 0 0 0 0 0 0 0 0 0 0 0 0 0 0 0 0 127 0"/><feOffset dy="1"/><feGaussianBlur stdDeviation="1"/><feColorMatrix values="0 0 0 0 0.0627451 0 0 0 0 0.0941176 0 0 0 0 0.156863 0 0 0 0.06 0"/><feBlend in2="BackgroundImageFix" result="effect1_dropShadow_91_26712"/><feColorMatrix in="SourceAlpha" result="hardAlpha" values="0 0 0 0 0 0 0 0 0 0 0 0 0 0 0 0 0 0 127 0"/><feOffset dy="1"/><feGaussianBlur stdDeviation="1.5"/><feColorMatrix values="0 0 0 0 0.0627451 0 0 0 0 0.0941176 0 0 0 0 0.156863 0 0 0 0.1 0"/><feBlend in2="effect1_dropShadow_91_26712" result="effect2_dropShadow_91_26712"/><feBlend in="SourceGraphic" in2="effect2_dropShadow_91_26712" result="shape"/></filter><clipPath id="clip0_91_26712"><rect width="36" height="24" x="3" y="2" fill="white" rx="2"/></clipPath></defs></svg>

<svg xmlns="http://www.w3.org/2000/svg" fill="none" aria-hidden="true" viewBox="0 0 42 30"><g filter="url(#a)"><g clip-path="url(#b)"><mask id="c" width="36" height="24" x="3" y="2" maskUnits="userSpaceOnUse" style="mask-type:alpha"><path fill="#fff" d="M3 2h36v24H3z"/></mask><g mask="url(#c)"><path fill="#F7FCFF" fill-rule="evenodd" d="M3 2h36v24H3V2Z" clip-rule="evenodd"/><path fill="#E31D1C" d="M3.03 7.5h36v3h-36z"/><path fill="#E31D1C" fill-rule="evenodd" d="M3 2h36v3H3V2Z" clip-rule="evenodd"/><path fill="#E31D1C" d="M2.934 13h36v3h-36zm.191 5.4h36v3h-36zm-.011 5.1h36v3h-36z"/><path fill="#3D58DB" fill-rule="evenodd" d="M3 2h18v14H3V2Z" clip-rule="evenodd"/><path fill="#F7FCFF" fill-rule="evenodd" d="M12.149 11.213 8.862 13.24l1.05-3.47L7.5 7.552l3.267-.12L12.149 4l1.382 3.432h3.261l-2.407 2.337 1.206 3.266-3.442-1.822Z" clip-rule="evenodd"/></g></g></g><defs><clipPath id="b"><rect width="36" height="24" x="3" y="2" fill="#fff" rx="2"/></clipPath><filter id="a" width="42" height="30" x="0" y="0" color-interpolation-filters="sRGB" filterUnits="userSpaceOnUse"><feFlood flood-opacity="0" result="BackgroundImageFix"/><feColorMatrix in="SourceAlpha" result="hardAlpha" values="0 0 0 0 0 0 0 0 0 0 0 0 0 0 0 0 0 0 127 0"/><feOffset dy="1"/><feGaussianBlur stdDeviation="1"/><feColorMatrix values="0 0 0 0 0.0627451 0 0 0 0 0.0941176 0 0 0 0 0.156863 0 0 0 0.06 0"/><feBlend in2="BackgroundImageFix" result="effect1_dropShadow_91_26712"/><feColorMatrix in="SourceAlpha" result="hardAlpha" values="0 0 0 0 0 0 0 0 0 0 0 0 0 0 0 0 0 0 127 0"/><feOffset dy="1"/><feGaussianBlur stdDeviation="1.5"/><feColorMatrix values="0 0 0 0 0.0627451 0 0 0 0 0.0941176 0 0 0 0 0.156863 0 0 0 0.1 0"/><feBlend in2="effect1_dropShadow_91_26712" result="effect2_dropShadow_91_26712"/><feBlend in="SourceGraphic" in2="effect2_dropShadow_91_26712" result="shape"/></filter></defs></svg>
